usr/share/icons/biglinux-icons-material/16/actions/boundingbox_center.svg

<svg width="16" height="16" version="1.1" xmlns="http://www.w3.org/2000/svg" xmlns:xlink="http://www.w3.org/1999/xlink">
 <path d="m8 3.5a4.5 4.5 0 0 0-4.5 4.5 4.5 4.5 0 0 0 4.5 4.5 4.5 4.5 0 0 0 4.5-4.5 4.5 4.5 0 0 0-4.5-4.5zm0 2a2.5 2.5 0 0 1 2.5 2.5 2.5 2.5 0 0 1-2.5 2.5 2.5 2.5 0 0 1-2.5-2.5 2.5 2.5 0 0 1 2.5-2.5z" fill="#61a1ff"/>
</svg>

<svg xmlns="http://www.w3.org/2000/svg" width="16" height="16"><path fill="#61a1ff" d="M8 3.5A4.5 4.5 0 0 0 3.5 8 4.5 4.5 0 0 0 8 12.5 4.5 4.5 0 0 0 12.5 8 4.5 4.5 0 0 0 8 3.5zm0 2A2.5 2.5 0 0 1 10.5 8 2.5 2.5 0 0 1 8 10.5 2.5 2.5 0 0 1 5.5 8 2.5 2.5 0 0 1 8 5.5z"/></svg>
